X: 35915
T: Sandy's New Chanter
R: hornpipe
M: 4/4
K: Gmajor
|:B2AB BDGB|c2Bc EEc2|BDGB Bdcd|ADFA AdcA|
B2AB BDGB|c2Bc EEc2|BDGB ADFA|1 G4 G2dc:|2 G4 G2D2||
|:d2Bd GBBD|c2Bc EEc2|BDGB Bdcd|ADFA AdcA|
[1 d2Bd GBBD|c2Bc EEc2|BDGB ADFA|G4 G2D2:|
[2 B2AB BDGB|c2Bc EEc2|BDGB ADFA|G4 G2DG||
|:BD D/D/D DB BD|c2 Bc2E Gc|BD D/D/D Gd cd|AD FA Ad cA|
BD D/D/D DB BD|cC Ec2E Gc|BD GB AD FA|1 G4 G2 DG:|2 G4 G2 D2||
|:d2 d2 Bc dB|cC Ec EG cA|BD D/D/D Gd cd|AD FA Ad cA|
[1 d2d2 BcdB|cCEc EGcA|BDGB ADFA|G4 G2D2:|
[2 B2AB BDGB|c2Bc EEc2|BDGB ADFA|G4 G2z2||

